X: 10181
Q:
M: 2/4
L: 1/8
K: G
V: 1
[|\
d2{edc}(de) | c2{dcB}(cd) | B2(Gc) | (B2A)z |
d2{edc}(df) | e2{fed}(eg) | f2(e>d) | d2z2 |]
[| d2(d>e) | d2(cB) | c2(cd) | c2(Bd) |\
g2(ga) | (fe)(dc) | (Bd)(cB) | (B2A)z |
d2ed | dccB | dcBA | A2Bd |
g2ga | f2g2 | dcBA | A2Gz |]
V: 2
[|\
d2e2 | (dc)B2 | E3F | (GA)G2 | A2B2 | E2F2 | G2EA | (G2F)z |
d2^c2 | (dc)B2 | E3F | GAG2 | A2F2 | B2G2 | d2^c2 | d2z2 |] [| F2^G2 |



